packages/bezier-icons/icons/face-smile-filled.svg

<svg width="24" height="24" viewBox="0 0 24 24" fill="none" xmlns="http://www.w3.org/2000/svg">
<path fill-rule="evenodd" clip-rule="evenodd" d="M2.00018 12.0001C2.00018 6.47812 6.47718 2.00012 12.0002 2.00012C17.5222 2.00012 22.0002 6.47812 22.0002 12.0001C22.0002 17.5221 17.5222 22.0001 12.0002 22.0001C6.47718 22.0001 2.00018 17.5221 2.00018 12.0001ZM11.9903 17.7081H11.9943C16.3113 17.7081 17.5003 14.2491 17.5483 14.1021C17.7213 13.5771 17.4363 13.0121 16.9113 12.8391C16.3863 12.6651 15.8223 12.9521 15.6493 13.4771L15.649 13.4781C15.6288 13.5349 14.8578 15.7081 11.9943 15.7081H11.9913C9.1683 15.7061 8.3833 13.5681 8.3483 13.4691C8.1723 12.9501 7.6103 12.6651 7.0893 12.8391C6.5643 13.0111 6.2783 13.5761 6.4513 14.1011C6.4993 14.2481 7.6833 17.7041 11.9903 17.7081ZM8.78628 11.8253C7.94128 11.8253 7.58728 11.2153 7.58728 9.72032C7.58728 8.22532 7.94128 7.61432 8.78628 7.61432C9.63128 7.61432 9.98428 8.22532 9.98428 9.72032C9.98428 11.2153 9.63128 11.8253 8.78628 11.8253ZM14.015 9.72032C14.015 11.2153 14.368 11.8253 15.214 11.8253C16.059 11.8253 16.412 11.2153 16.412 9.72032C16.412 8.22532 16.059 7.61432 15.214 7.61432C14.368 7.61432 14.015 8.22532 14.015 9.72032Z" fill="#313234"/>
</svg>

<svg xmlns="http://www.w3.org/2000/svg" width="24" height="24" fill="none" viewBox="0 0 24 24"><path fill="#313234" fill-rule="evenodd" d="M2 12C2 6.478 6.477 2 12 2s10 4.478 10 10-4.478 10-10 10S2 17.522 2 12m9.99 5.708h.004c4.317 0 5.506-3.459 5.554-3.606a1 1 0 1 0-1.899-.625v.001c-.02.057-.791 2.23-3.655 2.23h-.003c-2.823-.002-3.608-2.14-3.643-2.239a.999.999 0 0 0-1.897.632c.048.147 1.232 3.603 5.54 3.607m-3.204-5.883c-.845 0-1.199-.61-1.199-2.105s.354-2.106 1.2-2.106c.844 0 1.197.611 1.197 2.106s-.353 2.105-1.198 2.105m5.229-2.105c0 1.495.353 2.105 1.199 2.105.845 0 1.198-.61 1.198-2.105s-.353-2.106-1.198-2.106c-.846 0-1.199.611-1.199 2.106" clip-rule="evenodd"/></svg>
